priv/static/svgs/icons_new/security-verified.svg

<svg width="32" height="32" viewBox="0 0 32 32" fill="none" xmlns="http://www.w3.org/2000/svg">
<path d="M13.8262 6.43425C14.6445 4.52192 17.3555 4.52192 18.1738 6.43425C18.6791 7.61509 20.0346 8.17658 21.2269 7.6989C23.1578 6.92531 25.0747 8.84223 24.3011 10.7731C23.8234 11.9654 24.3849 13.3209 25.5657 13.8262C27.4781 14.6445 27.4781 17.3555 25.5657 18.1738C24.3849 18.6791 23.8234 20.0346 24.3011 21.2269C25.0747 23.1578 23.1578 25.0747 21.2269 24.3011C20.0346 23.8234 18.6791 24.3849 18.1738 25.5657C17.3555 27.4781 14.6445 27.4781 13.8262 25.5657C13.3209 24.3849 11.9654 23.8234 10.7731 24.3011C8.84223 25.0747 6.92531 23.1578 7.6989 21.2269C8.17658 20.0346 7.61509 18.6791 6.43425 18.1738C4.52192 17.3555 4.52192 14.6445 6.43425 13.8262C7.61509 13.3209 8.17658 11.9654 7.6989 10.7731C6.92531 8.84223 8.84223 6.92531 10.7731 7.6989C11.9654 8.17658 13.3209 7.61509 13.8262 6.43425Z" stroke="black" stroke-linecap="round" stroke-linejoin="round"/>
<path d="M13 16.0001L15.6474 18.5001L19.5 13" stroke="black" stroke-linecap="round" stroke-linejoin="round"/>
</svg>

<svg width="32" height="32" viewBox="0 0 32 32" fill="none" xmlns="http://www.w3.org/2000/svg">
  <symbol id="item" viewBox="0 0 32 32" stroke-width="1" fill="none">
    <path d="M13.826 6.434c.819-1.912 3.53-1.912 4.348 0A2.364 2.364 0 0 0 21.227 7.7c1.93-.774 3.848 1.143 3.074 3.074a2.364 2.364 0 0 0 1.265 3.053c1.912.819 1.912 3.53 0 4.348a2.364 2.364 0 0 0-1.265 3.053c.774 1.93-1.143 3.848-3.074 3.074a2.364 2.364 0 0 0-3.053 1.265c-.819 1.912-3.53 1.912-4.348 0a2.364 2.364 0 0 0-3.053-1.265c-1.93.774-3.848-1.143-3.074-3.074a2.364 2.364 0 0 0-1.265-3.053c-1.912-.819-1.912-3.53 0-4.348A2.364 2.364 0 0 0 7.7 10.773c-.774-1.93 1.143-3.848 3.074-3.074a2.364 2.364 0 0 0 3.053-1.265Z" stroke="currentColor" stroke-linecap="round" stroke-linejoin="round"/><path d="m13 16 2.647 2.5L19.5 13" stroke="currentColor" stroke-linecap="round" stroke-linejoin="round"/>
  </symbol>
</svg>
